TH2/twoscales.svg

<svg xmlns="http://www.w3.org/2000/svg" viewBox="0 0 1200 800" preserveAspectRatio="none" width="1200" height="800">
 <path d="M0,0H1200V800H0Z" style="fill: white;"></path>
 <g>
  <g transform="translate(120,80)">
   <path d="M0,0H960V640H0Z" style="fill: white; stroke: black; stroke-width: 1;"></path>
   <svg x="0" y="0" overflow="hidden" width="960" height="640" viewBox="0 0 960 640">
    <g>
     <path d="M484,306v11h17v-11zM484,290v11h17v-11zM485,275v9h14v-9zM480,256v16h24v-16zM487,245v7h10v-7zM485,227v9h14v-9zM484,210v11h17v-11zM485,195v9h14v-9zM485,163v9h14v-9zM487,133v7h10v-7zM485,115v9h14v-9zM487,69v7h10v-7zM506,305v13h20v-13zM508,290v11h17v-11zM509,275v9h14v-9zM506,257v13h20v-13zM505,241v15h22v-15zM511,229v7h10v-7zM508,210v11h17v-11zM509,195v9h14v-9zM511,181v7h10v-7zM511,165v7h10v-7zM508,146v11h17v-11zM511,85v7h10v-7zM529,305v15h22v-15zM533,291v9h14v-9zM528,272v16h24v-16zM532,258v11h17v-11zM530,241v13h20v-13zM532,210v11h17v-11zM529,193v15h22v-15zM535,181v7h10v-7zM532,162v11h17v-11zM535,149v7h10v-7zM535,133v7h10v-7zM535,117v7h10v-7zM557,307v9h14v-9zM554,289v13h20v-13zM554,273v13h20v-13zM557,243v9h14v-9zM556,226v11h17v-11zM552,208v16h24v-16zM557,195v9h14v-9zM556,178v11h17v-11zM559,165v7h10v-7zM559,117v7h10v-7zM580,306v11h17v-11zM577,289v15h22v-15zM580,274v11h17v-11zM583,261v7h10v-7zM581,243v9h14v-9zM580,226v11h17v-11zM581,211v9h14v-9zM581,195v9h14v-9zM581,179v9h14v-9zM583,149v7h10v-7zM580,114v11h17v-11zM583,101v7h10v-7zM607,309v7h10v-7zM604,290v11h17v-11zM601,273v15h22v-15zM605,259v9h14v-9zM604,242v11h17v-11zM602,209v13h20v-13zM607,181v7h10v-7zM607,149v7h10v-7zM607,133v7h10v-7zM625,305v15h22v-15zM629,291v9h14v-9zM626,273v13h20v-13zM629,259v9h14v-9zM631,245v7h10v-7zM628,210v11h17v-11zM629,195v9h14v-9zM631,165v7h10v-7zM631,101v7h10v-7zM653,275v9h14v-9zM655,261v7h10v-7zM653,243v9h14v-9zM655,229v7h10v-7zM655,213v7h10v-7zM655,197v7h10v-7zM655,181v7h10v-7zM653,147v9h14v-9zM655,133v7h10v-7zM677,307v9h14v-9zM674,289v13h20v-13zM679,277v7h10v-7zM679,261v7h10v-7zM674,241v13h20v-13zM679,213v7h10v-7zM679,165v7h10v-7zM679,133v7h10v-7zM703,293v7h10v-7zM701,275v9h14v-9zM700,242v11h17v-11zM703,229v7h10v-7zM701,211v9h14v-9zM701,195v9h14v-9zM703,133v7h10v-7zM703,85v7h10v-7zM725,307v9h14v-9zM727,293v7h10v-7zM727,277v7h10v-7zM727,245v7h10v-7zM727,181v7h10v-7zM724,146v11h17v-11zM749,275v9h14v-9zM751,245v7h10v-7zM751,181v7h10v-7zM775,293v7h10v-7zM775,261v7h10v-7zM775,181v7h10v-7zM799,309v7h10v-7zM799,229v7h10v-7zM799,165v7h10v-7zM823,293v7h10v-7zM823,53v7h10v-7zM847,261v7h10v-7zM847,245v7h10v-7zM871,197v7h10v-7zM871,181v7h10v-7zM871,165v7h10v-7zM895,245v7h10v-7zM895,85v7h10v-7z" style="fill: black;"></path>
    </g>
    <g>
     <path d="M32,421v6h8v-6zM32,389v6h8v-6zM56,485v6h8v-6zM78,452v8h12v-8zM80,437v6h8v-6zM78,388v8h12v-8zM104,437v6h8v-6zM104,405v6h8v-6zM104,341v6h8v-6zM128,485v6h8v-6zM128,357v6h8v-6zM152,469v6h8v-6zM152,405v6h8v-6zM152,357v6h8v-6zM174,468v8h12v-8zM176,453v6h8v-6zM176,405v6h8v-6zM176,389v6h8v-6zM176,341v6h8v-6zM200,453v6h8v-6zM200,437v6h8v-6zM200,405v6h8v-6zM200,357v6h8v-6zM200,341v6h8v-6zM198,324v8h12v-8zM224,501v6h8v-6zM224,469v6h8v-6zM224,453v6h8v-6zM224,437v6h8v-6zM224,389v6h8v-6zM222,372v8h12v-8zM224,357v6h8v-6zM224,341v6h8v-6zM224,325v6h8v-6zM248,565v6h8v-6zM248,501v6h8v-6zM246,404v8h12v-8zM246,356v8h12v-8zM248,341v6h8v-6zM272,533v6h8v-6zM272,469v6h8v-6zM272,453v6h8v-6zM269,435v10h15v-10zM270,388v8h12v-8zM270,372v8h12v-8zM272,357v6h8v-6zM272,341v6h8v-6zM296,437v6h8v-6zM294,420v8h12v-8zM294,404v8h12v-8zM294,388v8h12v-8zM293,371v10h15v-10zM296,357v6h8v-6zM290,337v14h21v-14zM292,322v11h17v-11zM320,549v6h8v-6zM320,517v6h8v-6zM317,499v10h15v-10zM320,469v6h8v-6zM320,453v6h8v-6zM318,436v8h12v-8zM317,419v10h15v-10zM318,404v8h12v-8zM317,371v10h15v-10zM318,356v8h12v-8zM318,340v8h12v-8zM316,322v11h17v-11zM344,533v6h8v-6zM344,485v6h8v-6zM344,469v6h8v-6zM340,434v11h17v-11zM342,420v8h12v-8zM340,402v11h17v-11zM344,389v6h8v-6zM344,373v6h8v-6zM337,353v15h22v-15zM344,341v6h8v-6zM344,325v6h8v-6zM368,453v6h8v-6zM368,421v6h8v-6zM368,405v6h8v-6zM368,389v6h8v-6zM366,372v8h12v-8zM363,354v13h19v-13zM363,338v13h19v-13zM365,323v10h15v-10zM392,533v6h8v-6zM389,467v10h15v-10zM388,434v11h17v-11zM390,420v8h12v-8zM390,404v8h12v-8zM387,386v13h19v-13zM390,372v8h12v-8zM390,356v8h12v-8zM390,340v8h12v-8zM389,323v10h15v-10zM416,581v6h8v-6zM416,501v6h8v-6zM416,485v6h8v-6zM414,468v8h12v-8zM416,453v6h8v-6zM413,435v10h15v-10zM413,419v10h15v-10zM414,404v8h12v-8zM411,386v13h19v-13zM416,373v6h8v-6zM410,353v14h21v-14zM411,338v13h19v-13zM410,321v14h21v-14zM440,533v6h8v-6zM440,501v6h8v-6zM438,452v8h12v-8zM437,435v10h15v-10zM440,421v6h8v-6zM438,404v8h12v-8zM440,389v6h8v-6zM438,372v8h12v-8zM440,357v6h8v-6zM436,338v11h17v-11zM433,321v15h22v-15zM464,533v6h8v-6zM462,516v8h12v-8zM462,484v8h12v-8zM464,469v6h8v-6zM464,453v6h8v-6zM464,437v6h8v-6zM462,420v8h12v-8zM459,402v13h19v-13zM456,384v16h24v-16zM462,372v8h12v-8zM460,354v11h17v-11zM461,339v10h15v-10zM461,323v10h15v-10z" style="fill: red;"></path>
    </g>
   </svg>
   <g>
    <g transform="translate(0,640)">
     <path d="M0,0h960M0,-24v24m32,-12v12m32,-12v12m32,-12v12m32,-12v12m32,-24v24m32,-12v12m32,-12v12m32,-12v12m32,-12v12m32,-24v24m32,-12v12m32,-12v12m32,-12v12m32,-12v12m32,-24v24m32,-12v12m32,-12v12m32,-12v12m32,-12v12m32,-24v24m32,-12v12m32,-12v12m32,-12v12m32,-12v12m32,-24v24m32,-12v12m32,-12v12m32,-12v12m32,-12v12m32,-24v24" style="stroke: black; stroke-width: 1;"></path>
     <g font-family="Arial" font-size="28" space="preserve" fill="black" text-anchor="middle">
      <text dy=".8em" transform="translate(0,6)">
       -3
      </text>
      <text dy=".8em" transform="translate(160,6)">
       -2
      </text>
      <text dy=".8em" transform="translate(320,6)">
       -1
      </text>
      <text dy=".8em" transform="translate(480,6)">
       0
      </text>
      <text dy=".8em" transform="translate(640,6)">
       1
      </text>
      <text dy=".8em" transform="translate(800,6)">
       2
      </text>
      <text dy=".8em" transform="translate(960,6)">
       3
      </text>
     </g>
    </g>
    <g>
     <path d="M0,0v640M36,640h-36m18,-21h-18m18,-22h-18m18,-21h-18m18,-21h-18m36,-22h-36m18,-21h-18m18,-21h-18m18,-22h-18m18,-21h-18m36,-21h-36m18,-22h-18m18,-21h-18m18,-21h-18m18,-22h-18m36,-21h-36m18,-21h-18m18,-22h-18m18,-21h-18m18,-21h-18m36,-22h-36m18,-21h-18m18,-21h-18m18,-22h-18m18,-21h-18m36,-21h-36m18,-22h-18m18,-21h-18m18,-21h-18m18,-22h-18m36,-21h-36" style="stroke: black; stroke-width: 1;"></path>
     <g font-family="Arial" font-size="28" space="preserve" fill="black" text-anchor="end">
      <text dy=".4em" transform="translate(-4,640)">
       -3
      </text>
      <text dy=".4em" transform="translate(-4,533)">
       -2
      </text>
      <text dy=".4em" transform="translate(-4,427)">
       -1
      </text>
      <text dy=".4em" transform="translate(-4,320)">
       0
      </text>
      <text dy=".4em" transform="translate(-4,213)">
       1
      </text>
      <text dy=".4em" transform="translate(-4,107)">
       2
      </text>
      <text dy=".4em" transform="translate(-4)">
       3
      </text>
     </g>
    </g>
    <g>
     <path d="M0,0h960M0,0v24m32,-24v12m32,-12v12m32,-12v12m32,-12v12m32,-12v24m32,-24v12m32,-12v12m32,-12v12m32,-12v12m32,-12v24m32,-24v12m32,-12v12m32,-12v12m32,-12v12m32,-12v24m32,-24v12m32,-12v12m32,-12v12m32,-12v12m32,-12v24m32,-24v12m32,-12v12m32,-12v12m32,-12v12m32,-12v24m32,-24v12m32,-12v12m32,-12v12m32,-12v12m32,-12v24" style="stroke: red; stroke-width: 1;"></path>
     <g font-family="Arial" font-size="28" space="preserve" fill="red" text-anchor="middle">
      <text transform="translate(0,-6)">
       -3
      </text>
      <text transform="translate(160,-6)">
       -2
      </text>
      <text transform="translate(320,-6)">
       -1
      </text>
      <text transform="translate(480,-6)">
       0
      </text>
      <text transform="translate(640,-6)">
       1
      </text>
      <text transform="translate(800,-6)">
       2
      </text>
      <text transform="translate(960,-6)">
       3
      </text>
     </g>
    </g>
    <g transform="translate(960)">
     <path d="M0,0v640M0,640h-36m36,-21h-18m18,-22h-18m18,-21h-18m18,-21h-18m18,-22h-36m36,-21h-18m18,-21h-18m18,-22h-18m18,-21h-18m18,-21h-36m36,-22h-18m18,-21h-18m18,-21h-18m18,-22h-18m18,-21h-36m36,-21h-18m18,-22h-18m18,-21h-18m18,-21h-18m18,-22h-36m36,-21h-18m18,-21h-18m18,-22h-18m18,-21h-18m18,-21h-36m36,-22h-18m18,-21h-18m18,-21h-18m18,-22h-18m18,-21h-36" style="stroke: red; stroke-width: 1;"></path>
     <g font-family="Arial" font-size="28" space="preserve" fill="red" text-anchor="start">
      <text dy=".4em" transform="translate(4,640)">
       -3
      </text>
      <text dy=".4em" transform="translate(4,533)">
       -2
      </text>
      <text dy=".4em" transform="translate(4,427)">
       -1
      </text>
      <text dy=".4em" transform="translate(4,320)">
       0
      </text>
      <text dy=".4em" transform="translate(4,213)">
       1
      </text>
      <text dy=".4em" transform="translate(4,107)">
       2
      </text>
      <text dy=".4em" transform="translate(4)">
       3
      </text>
     </g>
    </g>
   </g>
  </g>
  <g transform="translate(120,4)" font-family="Arial" font-size="40" space="preserve">
   <text fill="black" text-anchor="middle" dy=".8em" transform="translate(480)">
    Example of BOX plots with option SAME
   </text>
  </g>
  <g transform="translate(936,52)" font-family="Arial" font-size="20" space="preserve" fill="black">
   <path d="M0,0H240V192H0Z" style="fill: white; stroke: black; stroke-width: 1;"></path>
   <text text-anchor="middle" dy=".4em" transform="translate(120,16)">
    hb1
   </text>
   <text text-anchor="start" dy=".4em" transform="translate(12,48)">
    Entries
   </text>
   <text text-anchor="end" dy=".4em" transform="translate(228,48)">
    260
   </text>
   <text text-anchor="start" dy=".4em" transform="translate(12,80)">
    Mean x
   </text>
   <text text-anchor="end" dy=".4em" transform="translate(228,80)">
    0.7668
   </text>
   <text text-anchor="start" dy=".4em" transform="translate(12,112)">
    Mean y
   </text>
   <text text-anchor="end" dy=".4em" transform="translate(228,112)">
    0.7743
   </text>
   <text text-anchor="start" dy=".4em" transform="translate(12,144)">
    Std Dev x
   </text>
   <text text-anchor="end" dy=".4em" transform="translate(228,144)">
    0.5726
   </text>
   <text text-anchor="start" dy=".4em" transform="translate(12,176)">
    Std Dev y
   </text>
   <text text-anchor="end" dy=".4em" transform="translate(228,176)">
    0.5440
   </text>
   <path d="M0,32h240" style="stroke: black; stroke-width: 1;"></path>
  </g>
 </g>
</svg>

<svg xmlns="http://www.w3.org/2000/svg" viewBox="0 0 1200 800" preserveAspectRatio="none" width="1200" height="800">
 <path d="M0,0H1200V800H0Z" style="fill: white;"></path>
 <g>
  <g transform="translate(120,80)">
   <path d="M0,0H960V640H0Z" style="fill: white; stroke: black; stroke-width: 1;"></path>
   <svg x="0" y="0" overflow="hidden" width="960" height="640" viewBox="0 0 960 640">
    <g>
     <path d="M484,306v11h17v-11zM484,290v11h17v-11zM485,275v9h14v-9zM480,256v16h24v-16zM487,245v7h10v-7zM485,227v9h14v-9zM484,210v11h17v-11zM485,195v9h14v-9zM485,163v9h14v-9zM487,133v7h10v-7zM485,115v9h14v-9zM487,69v7h10v-7zM506,305v13h20v-13zM508,290v11h17v-11zM509,275v9h14v-9zM506,257v13h20v-13zM505,241v15h22v-15zM511,229v7h10v-7zM508,210v11h17v-11zM509,195v9h14v-9zM511,181v7h10v-7zM511,165v7h10v-7zM508,146v11h17v-11zM511,85v7h10v-7zM529,305v15h22v-15zM533,291v9h14v-9zM528,272v16h24v-16zM532,258v11h17v-11zM530,241v13h20v-13zM532,210v11h17v-11zM529,193v15h22v-15zM535,181v7h10v-7zM532,162v11h17v-11zM535,149v7h10v-7zM535,133v7h10v-7zM535,117v7h10v-7zM557,307v9h14v-9zM554,289v13h20v-13zM554,273v13h20v-13zM557,243v9h14v-9zM556,226v11h17v-11zM552,208v16h24v-16zM557,195v9h14v-9zM556,178v11h17v-11zM559,165v7h10v-7zM559,117v7h10v-7zM580,306v11h17v-11zM577,289v15h22v-15zM580,274v11h17v-11zM583,261v7h10v-7zM581,243v9h14v-9zM580,226v11h17v-11zM581,211v9h14v-9zM581,195v9h14v-9zM581,179v9h14v-9zM583,149v7h10v-7zM580,114v11h17v-11zM583,101v7h10v-7zM607,309v7h10v-7zM604,290v11h17v-11zM601,273v15h22v-15zM605,259v9h14v-9zM604,242v11h17v-11zM602,209v13h20v-13zM607,181v7h10v-7zM607,149v7h10v-7zM607,133v7h10v-7zM625,305v15h22v-15zM629,291v9h14v-9zM626,273v13h20v-13zM629,259v9h14v-9zM631,245v7h10v-7zM628,210v11h17v-11zM629,195v9h14v-9zM631,165v7h10v-7zM631,101v7h10v-7zM653,275v9h14v-9zM655,261v7h10v-7zM653,243v9h14v-9zM655,229v7h10v-7zM655,213v7h10v-7zM655,197v7h10v-7zM655,181v7h10v-7zM653,147v9h14v-9zM655,133v7h10v-7zM677,307v9h14v-9zM674,289v13h20v-13zM679,277v7h10v-7zM679,261v7h10v-7zM674,241v13h20v-13zM679,213v7h10v-7zM679,165v7h10v-7zM679,133v7h10v-7zM703,293v7h10v-7zM701,275v9h14v-9zM700,242v11h17v-11zM703,229v7h10v-7zM701,211v9h14v-9zM701,195v9h14v-9zM703,133v7h10v-7zM703,85v7h10v-7zM725,307v9h14v-9zM727,293v7h10v-7zM727,277v7h10v-7zM727,245v7h10v-7zM727,181v7h10v-7zM724,146v11h17v-11zM749,275v9h14v-9zM751,245v7h10v-7zM751,181v7h10v-7zM775,293v7h10v-7zM775,261v7h10v-7zM775,181v7h10v-7zM799,309v7h10v-7zM799,229v7h10v-7zM799,165v7h10v-7zM823,293v7h10v-7zM823,53v7h10v-7zM847,261v7h10v-7zM847,245v7h10v-7zM871,197v7h10v-7zM871,181v7h10v-7zM871,165v7h10v-7zM895,245v7h10v-7zM895,85v7h10v-7z" style="fill: black;"></path>
    </g>
    <g>
     <path d="M32,421v6h8v-6zM32,389v6h8v-6zM56,485v6h8v-6zM78,452v8h12v-8zM80,437v6h8v-6zM78,388v8h12v-8zM104,437v6h8v-6zM104,405v6h8v-6zM104,341v6h8v-6zM128,485v6h8v-6zM128,357v6h8v-6zM152,469v6h8v-6zM152,405v6h8v-6zM152,357v6h8v-6zM174,468v8h12v-8zM176,453v6h8v-6zM176,405v6h8v-6zM176,389v6h8v-6zM176,341v6h8v-6zM200,453v6h8v-6zM200,437v6h8v-6zM200,405v6h8v-6zM200,357v6h8v-6zM200,341v6h8v-6zM198,324v8h12v-8zM224,501v6h8v-6zM224,469v6h8v-6zM224,453v6h8v-6zM224,437v6h8v-6zM224,389v6h8v-6zM222,372v8h12v-8zM224,357v6h8v-6zM224,341v6h8v-6zM224,325v6h8v-6zM248,565v6h8v-6zM248,501v6h8v-6zM246,404v8h12v-8zM246,356v8h12v-8zM248,341v6h8v-6zM272,533v6h8v-6zM272,469v6h8v-6zM272,453v6h8v-6zM269,435v10h15v-10zM270,388v8h12v-8zM270,372v8h12v-8zM272,357v6h8v-6zM272,341v6h8v-6zM296,437v6h8v-6zM294,420v8h12v-8zM294,404v8h12v-8zM294,388v8h12v-8zM293,371v10h15v-10zM296,357v6h8v-6zM290,337v14h21v-14zM292,322v11h17v-11zM320,549v6h8v-6zM320,517v6h8v-6zM317,499v10h15v-10zM320,469v6h8v-6zM320,453v6h8v-6zM318,436v8h12v-8zM317,419v10h15v-10zM318,404v8h12v-8zM317,371v10h15v-10zM318,356v8h12v-8zM318,340v8h12v-8zM316,322v11h17v-11zM344,533v6h8v-6zM344,485v6h8v-6zM344,469v6h8v-6zM340,434v11h17v-11zM342,420v8h12v-8zM340,402v11h17v-11zM344,389v6h8v-6zM344,373v6h8v-6zM337,353v15h22v-15zM344,341v6h8v-6zM344,325v6h8v-6zM368,453v6h8v-6zM368,421v6h8v-6zM368,405v6h8v-6zM368,389v6h8v-6zM366,372v8h12v-8zM363,354v13h19v-13zM363,338v13h19v-13zM365,323v10h15v-10zM392,533v6h8v-6zM389,467v10h15v-10zM388,434v11h17v-11zM390,420v8h12v-8zM390,404v8h12v-8zM387,386v13h19v-13zM390,372v8h12v-8zM390,356v8h12v-8zM390,340v8h12v-8zM389,323v10h15v-10zM416,581v6h8v-6zM416,501v6h8v-6zM416,485v6h8v-6zM414,468v8h12v-8zM416,453v6h8v-6zM413,435v10h15v-10zM413,419v10h15v-10zM414,404v8h12v-8zM411,386v13h19v-13zM416,373v6h8v-6zM410,353v14h21v-14zM411,338v13h19v-13zM410,321v14h21v-14zM440,533v6h8v-6zM440,501v6h8v-6zM438,452v8h12v-8zM437,435v10h15v-10zM440,421v6h8v-6zM438,404v8h12v-8zM440,389v6h8v-6zM438,372v8h12v-8zM440,357v6h8v-6zM436,338v11h17v-11zM433,321v15h22v-15zM464,533v6h8v-6zM462,516v8h12v-8zM462,484v8h12v-8zM464,469v6h8v-6zM464,453v6h8v-6zM464,437v6h8v-6zM462,420v8h12v-8zM459,402v13h19v-13zM456,384v16h24v-16zM462,372v8h12v-8zM460,354v11h17v-11zM461,339v10h15v-10zM461,323v10h15v-10z" style="fill: red;"></path>
    </g>
   </svg>
   <g>
    <g transform="translate(0,640)">
     <path d="M0,0h960M0,-24V0M32,-12V0M64,-12V0M96,-12V0M128,-12V0M160,-24V0M192,-12V0M224,-12V0M256,-12V0M288,-12V0M320,-24V0M352,-12V0M384,-12V0M416,-12V0M448,-12V0M480,-24V0M512,-12V0M544,-12V0M576,-12V0M608,-12V0M640,-24V0M672,-12V0M704,-12V0M736,-12V0M768,-12V0M800,-24V0M832,-12V0M864,-12V0M896,-12V0M928,-12V0M960,-24V0" style="stroke: black; stroke-width: 1;"></path>
     <g font-family="Arial" font-size="28" space="preserve" fill="black" text-anchor="middle">
      <text dy=".8em" transform="translate(0,6)">
       -3
      </text>
      <text dy=".8em" transform="translate(160,6)">
       -2
      </text>
      <text dy=".8em" transform="translate(320,6)">
       -1
      </text>
      <text dy=".8em" transform="translate(480,6)">
       0
      </text>
      <text dy=".8em" transform="translate(640,6)">
       1
      </text>
      <text dy=".8em" transform="translate(800,6)">
       2
      </text>
      <text dy=".8em" transform="translate(960,6)">
       3
      </text>
     </g>
    </g>
    <g>
     <path d="M0,0v640M36,640H0M18,619H0M18,597H0M18,576H0M18,555H0M36,533H0M18,512H0M18,491H0M18,469H0M18,448H0M36,427H0M18,405H0M18,384H0M18,363H0M18,341H0M36,320H0M18,299H0M18,277H0M18,256H0M18,235H0M36,213H0M18,192H0M18,171H0M18,149H0M18,128H0M36,107H0M18,85H0M18,64H0M18,43H0M18,21H0M36,0H0" style="stroke: black; stroke-width: 1;"></path>
     <g font-family="Arial" font-size="28" space="preserve" fill="black" text-anchor="end">
      <text dy=".4em" transform="translate(-4,640)">
       -3
      </text>
      <text dy=".4em" transform="translate(-4,533)">
       -2
      </text>
      <text dy=".4em" transform="translate(-4,427)">
       -1
      </text>
      <text dy=".4em" transform="translate(-4,320)">
       0
      </text>
      <text dy=".4em" transform="translate(-4,213)">
       1
      </text>
      <text dy=".4em" transform="translate(-4,107)">
       2
      </text>
      <text dy=".4em" transform="translate(-4)">
       3
      </text>
     </g>
    </g>
    <g>
     <path d="M0,0h960M0,0V24M32,0V12M64,0V12M96,0V12M128,0V12M160,0V24M192,0V12M224,0V12M256,0V12M288,0V12M320,0V24M352,0V12M384,0V12M416,0V12M448,0V12M480,0V24M512,0V12M544,0V12M576,0V12M608,0V12M640,0V24M672,0V12M704,0V12M736,0V12M768,0V12M800,0V24M832,0V12M864,0V12M896,0V12M928,0V12M960,0V24" style="stroke: red; stroke-width: 1;"></path>
     <g font-family="Arial" font-size="28" space="preserve" fill="red" text-anchor="middle">
      <text transform="translate(0,-6)">
       -3
      </text>
      <text transform="translate(160,-6)">
       -2
      </text>
      <text transform="translate(320,-6)">
       -1
      </text>
      <text transform="translate(480,-6)">
       0
      </text>
      <text transform="translate(640,-6)">
       1
      </text>
      <text transform="translate(800,-6)">
       2
      </text>
      <text transform="translate(960,-6)">
       3
      </text>
     </g>
    </g>
    <g transform="translate(960)">
     <path d="M0,0v640M0,640H-36M0,619H-18M0,597H-18M0,576H-18M0,555H-18M0,533H-36M0,512H-18M0,491H-18M0,469H-18M0,448H-18M0,427H-36M0,405H-18M0,384H-18M0,363H-18M0,341H-18M0,320H-36M0,299H-18M0,277H-18M0,256H-18M0,235H-18M0,213H-36M0,192H-18M0,171H-18M0,149H-18M0,128H-18M0,107H-36M0,85H-18M0,64H-18M0,43H-18M0,21H-18M0,0H-36" style="stroke: red; stroke-width: 1;"></path>
     <g font-family="Arial" font-size="28" space="preserve" fill="red" text-anchor="start">
      <text dy=".4em" transform="translate(4,640)">
       -3
      </text>
      <text dy=".4em" transform="translate(4,533)">
       -2
      </text>
      <text dy=".4em" transform="translate(4,427)">
       -1
      </text>
      <text dy=".4em" transform="translate(4,320)">
       0
      </text>
      <text dy=".4em" transform="translate(4,213)">
       1
      </text>
      <text dy=".4em" transform="translate(4,107)">
       2
      </text>
      <text dy=".4em" transform="translate(4)">
       3
      </text>
     </g>
    </g>
   </g>
  </g>
  <g transform="translate(120,4)" font-family="Arial" font-size="40" space="preserve">
   <text fill="black" text-anchor="middle" dy=".8em" transform="translate(480)">
    Example of BOX plots with option SAME
   </text>
  </g>
  <g transform="translate(936,52)" font-family="Arial" font-size="20" space="preserve" fill="black">
   <path d="M0,0H240V192H0Z" style="fill: white; stroke: black; stroke-width: 1;"></path>
   <text text-anchor="middle" dy=".4em" transform="translate(120,16)">
    hb1
   </text>
   <text text-anchor="start" dy=".4em" transform="translate(12,48)">
    Entries
   </text>
   <text text-anchor="end" dy=".4em" transform="translate(228,48)">
    260
   </text>
   <text text-anchor="start" dy=".4em" transform="translate(12,80)">
    Mean x
   </text>
   <text text-anchor="end" dy=".4em" transform="translate(228,80)">
    0.7668
   </text>
   <text text-anchor="start" dy=".4em" transform="translate(12,112)">
    Mean y
   </text>
   <text text-anchor="end" dy=".4em" transform="translate(228,112)">
    0.7743
   </text>
   <text text-anchor="start" dy=".4em" transform="translate(12,144)">
    Std Dev x
   </text>
   <text text-anchor="end" dy=".4em" transform="translate(228,144)">
    0.5726
   </text>
   <text text-anchor="start" dy=".4em" transform="translate(12,176)">
    Std Dev y
   </text>
   <text text-anchor="end" dy=".4em" transform="translate(228,176)">
    0.5440
   </text>
   <path d="M0,32h240" style="stroke: black; stroke-width: 1;"></path>
  </g>
 </g>
</svg>
